X:548
T:Glencoe March
C:Joe Buchanan's Scottish Tome - Page 094.1
I:094
C:Dan R. MacDonald
R:Reel
Z:Carl Allison
L:1/8
M:4/4
K:Dmaj
F>G | A2 d2     F2 d2  | A>FA<d f3 a | g3   e c>AB>c | d>cd>B A2F>G |
A2 d2     F2 d2  | A>FA<d f3 a | g3   e c>AB>c | d6 :|
a2 a>g    f>df<a | g2 g>e c>Ac<e   | d>cd<e f>ef<a | g>fg<b a2f>g |
a2 a>g    f>df<a | g2 g>e c>Ac<e   | d>cd>f e<ac<e | d6f>g |
a2 a>g    f>df<a | g2 g>e c>Ac<e   | d>cd<e f>ef<a | g>fg<b a2f>g |
((3agf) g>e f>de<c | d>BA>F D>FA<d   | B>GB<d c>Ac<e | d6d2 |]
